;FLAVOR:Marlin
;TIME:6012
;Filament used: 6.62202m
;Layer height: 0.21
;MINX:-27.186
;MINY:-12.866
;MINZ:0.21
;MAXX:30.182
;MAXY:8.502
;MAXZ:53.97
;Generated with Cura_SteamEngine 4.1.0
M140 S53
M105
M190 S53
M104 S195
M105
M109 S195
M82 ;absolute extrusion mode
;Calibration part starts here 
;M92 X57.14 Y57.14 Z57.14 ; If running V37-V41 or V45, uncomment this line and delete the one below 
;M92 X114.28 Y114.28 Z114.28 ; If running V43 or V44, uncomment this line and delete the one above 
M666 X0 Y0 Z0 ; Add your endstop values here after calibration 
M665 L120.80 R61.70 ; Sets default Delta Radius (change when calibrating) 
M301 P45.00 I0.07 D1000 ; Hot end settings 
M304 P100 I0 D0 ; Bed heater settings 
M500 ; Save settings 
; Calibration part ends here 
 
G90 ; switch to absolute positioning 
G92 E0 ; reset extrusion distance 
G1 E20 F200 ; purge 20mm of filament to prime nozzle. 
G92 E0 ; reset extrusion distance 
G4 S5 ; Pause for 5 seconds to allow time for removing extruded filament 
G28 ; start from home position 
G1 E-6 F900 ; retract 6mm of filament before starting the bed leveling process 
G92 E0 ; reset extrusion distance 
G4 S5 ; pause for 5 seconds to allow time for removing extruded filament 
G29 P4 Z0.28 ; Auto-level ; ADJUST Z higher or lower to set first layer height. Start with 0.02 adjustments. 
G1 Z30 ; raise Z 30mm to prepare for priming the nozzle 
G1 E5 F200 ; extrude 5mm of filament to help prime the nozzle just prior to the start of the print 
G92 E0 ; reset extrusion distance 
G4 S5 ; pause for 5 seconds to allow time for cleaning the nozzle and build plate if needed 
G92 E0
G92 E0
G1 F3000 E-5
;LAYER_COUNT:257
;LAYER:0
M107
G0 F3600 X-24.817 Y8.502 Z0.21
;TYPE:SKIRT
G1 F3000 E0
G1 F1800 X-25.515 Y8.493 E0.02349
G1 X-25.878 Y8.448 E0.03579
G1 X-26.224 Y8.326 E0.04814
G1 X-26.535 Y8.132 E0.06047
G1 X-26.796 Y7.875 E0.07279
G1 X-26.996 Y7.568 E0.08512
G1 X-27.125 Y7.225 E0.09745
G1 X-27.176 Y6.854 E0.11005
G1 X-27.185 Y6.521 E0.12125
G1 X-27.186 Y6.476 E0.12277
G1 X-27.186 Y-10.531 E0.69495
G1 X-27.177 Y-11.196 E0.71733
G1 X-27.132 Y-11.56 E0.72967
G1 X-27.01 Y-11.905 E0.74198
G1 X-26.815 Y-12.216 E0.75433
G1 X-26.558 Y-12.477 E0.76665
G1 X-26.251 Y-12.677 E0.77898
G1 X-25.908 Y-12.805 E0.7913
G1 X-25.54 Y-12.856 E0.8038
G1 X-25.219 Y-12.865 E0.8146
G1 X-25.172 Y-12.866 E0.81618
G1 X27.815 Y-12.866 E2.59888
G1 X28.513 Y-12.856 E2.62237
G1 X28.877 Y-12.811 E2.63471
G1 X29.222 Y-12.688 E2.64703
G1 X29.533 Y-12.493 E2.65938
G1 X29.794 Y-12.236 E2.6717
G1 X29.993 Y-11.929 E2.68401
G1 X30.121 Y-11.585 E2.69636
G1 X30.172 Y-11.219 E2.70879
G1 X30.181 Y-10.899 E2.71956
G1 X30.182 Y-10.852 E2.72115
G1 X30.182 Y6.103 E3.29158
G1 X30.173 Y6.83 E3.31604
G1 X30.128 Y7.194 E3.32838
G1 X30.006 Y7.539 E3.34069
G1 X29.813 Y7.85 E3.35301
G1 X29.556 Y8.112 E3.36536
G1 X29.249 Y8.312 E3.37768
G1 X28.906 Y8.441 E3.39001
G1 X28.536 Y8.492 E3.40258
G1 X28.215 Y8.501 E3.41338
G1 X28.168 Y8.502 E3.41496
G1 X-23.989 Y8.502 E5.16974
G0 F1620 X-24.817 Y8.502
G1 F3000 E0.16974
;MESH:Holo Stand.stl
G0 F3600 X-24.586 Y5.902
;TYPE:WALL-INNER
G1 F3000 E5.1976
G1 F1800 X-24.586 Y-10.266 E5.74155
G1 X27.582 Y-10.266 E7.4967
G1 X27.582 Y5.902 E8.04065
G1 X-23.758 Y5.902 E9.76794
G0 F1620 X-24.586 Y5.902
G0 F3600 X-24.953 Y6.269
G1 F3000 E9.7958
G1 F1800 X-24.953 Y-10.633 E10.36445
G1 X27.949 Y-10.633 E12.14429
G1 X27.949 Y6.269 E12.71294
G1 X-24.125 Y6.269 E14.46493
G0 F1620 X-24.953 Y6.269
G0 F3600 X-25.294 Y6.61
;TYPE:WALL-OUTER
G1 F3000 E14.49278
G1 F1800 X-25.294 Y-10.974 E15.08438
G1 X28.29 Y-10.974 E16.88716
G1 X28.29 Y6.61 E17.47876
G1 X-24.466 Y6.61 E19.25369
G0 F1620 X-25.294 Y6.61
G0 F3600 X-25.294 Y6.41
G0 X-24.891 Y6.207
G0 X-24.23 Y5.546
;TYPE:SKIN
G1 F3000 E19.28155
G1 F1800 X-24.23 Y-9.91 E19.80155
G1 X27.226 Y-9.91 E21.53274
G1 X27.226 Y5.546 E22.05274
G1 X-23.402 Y5.546 E23.75607
G0 F1620 X-24.23 Y5.546
G0 F3600 X-24.064 Y5
G1 F3000 E23.78393
G1 F1800 X-23.684 Y5.38 E23.80201
G0 F3600 X-23.165 Y5.38
G1 F1800 X-24.064 Y4.481 E23.84479
G0 F3600 X-24.064 Y3.962
G1 F1800 X-22.646 Y5.38 E23.91226
G0 F3600 X-22.127 Y5.38
G1 F1800 X-24.064 Y3.443 E24.00442
G0 F3600 X-24.064 Y2.924
G1 F1800 X-21.608 Y5.38 E24.12127
G0 F3600 X-21.089 Y5.38
G1 F1800 X-24.064 Y2.405 E24.26282
G0 F3600 X-24.064 Y1.886
G1 F1800 X-20.57 Y5.38 E24.42907
G0 F3600 X-20.051 Y5.38
G1 F1800 X-24.064 Y1.367 E24.62001
G0 F3600 X-24.064 Y0.848
G1 F1800 X-19.532 Y5.38 E24.83564
G0 F3600 X-19.013 Y5.38
G1 F1800 X-24.064 Y0.329 E25.07596
G0 F3600 X-24.064 Y-.189
G1 F1800 X-18.494 Y5.38 E25.34096
G0 F3600 X-17.975 Y5.38
G1 F1800 X-24.064 Y-.708 E25.63065
G0 F3600 X-24.064 Y-1.227
G1 F1800 X-17.456 Y5.38 E25.94504
G0 F3600 X-16.937 Y5.38
G1 F1800 X-24.064 Y-1.746 E26.28411
G0 F3600 X-24.064 Y-2.265
G1 F1800 X-16.418 Y5.38 E26.64789
G0 F3600 X-15.899 Y5.38
G1 F1800 X-24.064 Y-2.784 E27.03635
G0 F3600 X-24.064 Y-3.303
G1 F1800 X-15.38 Y5.38 E27.44951
G0 F3600 X-14.861 Y5.38
G1 F1800 X-24.064 Y-3.822 E27.88737
G0 F3600 X-24.064 Y-4.341
G1 F1800 X-14.342 Y5.38 E28.34991
G0 F3600 X-13.823 Y5.38
G1 F1800 X-24.064 Y-4.86 E28.83716
G0 F3600 X-24.064 Y-5.379
G1 F1800 X-13.304 Y5.38 E29.34909
G0 F3600 X-12.785 Y5.38
G1 F1800 X-24.064 Y-5.898 E29.88572
G0 F3600 X-24.064 Y-6.417
G1 F1800 X-12.266 Y5.38 E30.44705
G0 F3600 X-11.747 Y5.38
G1 F1800 X-24.064 Y-6.936 E31.03307
G0 F3600 X-24.064 Y-7.455
G1 F1800 X-11.228 Y5.38 E31.64378
G0 F3600 X-10.709 Y5.38
G1 F1800 X-24.064 Y-7.974 E32.27918
G0 F3600 X-24.064 Y-8.493
G1 F1800 X-10.19 Y5.38 E32.93928
G0 F3600 X-9.671 Y5.38
G1 F1800 X-24.064 Y-9.012 E33.62408
G0 F3600 X-24.064 Y-9.531
G1 F1800 X-9.152 Y5.38 E34.33357
G0 F3600 X-8.633 Y5.38
G1 F1800 X-23.758 Y-9.744 E35.05319
G0 F3600 X-23.239 Y-9.744
G1 F1800 X-8.114 Y5.38 E35.77281
G0 F3600 X-7.595 Y5.38
G1 F1800 X-22.72 Y-9.744 E36.49243
G0 F3600 X-22.201 Y-9.744
G1 F1800 X-7.076 Y5.38 E37.21206
G0 F3600 X-6.557 Y5.38
G1 F1800 X-21.682 Y-9.744 E37.93168
G0 F3600 X-21.162 Y-9.744
G1 F1800 X-6.037 Y5.38 E38.6513
G0 F3600 X-5.518 Y5.38
G1 F1800 X-20.643 Y-9.744 E39.37092
G0 F3600 X-20.124 Y-9.744
G1 F1800 X-4.999 Y5.38 E40.09054
G0 F3600 X-4.48 Y5.38
G1 F1800 X-19.605 Y-9.744 E40.81017
G0 F3600 X-19.086 Y-9.744
G1 F1800 X-3.961 Y5.38 E41.52979
G0 F3600 X-3.442 Y5.38
G1 F1800 X-18.567 Y-9.744 E42.24941
G0 F3600 X-18.048 Y-9.744
G1 F1800 X-2.923 Y5.38 E42.96903
G0 F3600 X-2.404 Y5.38
G1 F1800 X-17.529 Y-9.744 E43.68866
G0 F3600 X-17.01 Y-9.744
G1 F1800 X-1.885 Y5.38 E44.40828
G0 F3600 X-1.366 Y5.38
G1 F1800 X-16.491 Y-9.744 E45.1279
G0 F3600 X-15.972 Y-9.744
G1 F1800 X-.847 Y5.38 E45.84752
G0 F3600 X-.328 Y5.38
G1 F1800 X-15.453 Y-9.744 E46.56715
G0 F3600 X-14.934 Y-9.744
G1 F1800 X0.19 Y5.38 E47.28675
G0 F3600 X0.709 Y5.38
G1 F1800 X-14.415 Y-9.744 E48.00634
G0 F3600 X-13.896 Y-9.744
G1 F1800 X1.228 Y5.38 E48.72594
G0 F3600 X1.747 Y5.38
G1 F1800 X-13.377 Y-9.744 E49.44554
G0 F3600 X-12.858 Y-9.744
G1 F1800 X2.266 Y5.38 E50.16514
G0 F3600 X2.785 Y5.38
G1 F1800 X-12.339 Y-9.744 E50.88474
G0 F3600 X-11.82 Y-9.744
G1 F1800 X3.304 Y5.38 E51.60434
G0 F3600 X3.823 Y5.38
G1 F1800 X-11.301 Y-9.744 E52.32394
G0 F3600 X-10.782 Y-9.744
G1 F1800 X4.342 Y5.38 E53.04353
G0 F3600 X4.861 Y5.38
G1 F1800 X-10.263 Y-9.744 E53.76313
G0 F3600 X-9.744 Y-9.744
G1 F1800 X5.38 Y5.38 E54.48273
G0 F3600 X5.899 Y5.38
G1 F1800 X-9.225 Y-9.744 E55.20233
G0 F3600 X-8.706 Y-9.744
G1 F1800 X6.418 Y5.38 E55.92193
G0 F3600 X6.937 Y5.38
G1 F1800 X-8.187 Y-9.744 E56.64153
G0 F3600 X-7.668 Y-9.744
G1 F1800 X7.456 Y5.38 E57.36113
G0 F3600 X7.975 Y5.38
G1 F1800 X-7.149 Y-9.744 E58.08073
G0 F3600 X-6.63 Y-9.744
G1 F1800 X8.494 Y5.38 E58.80032
G0 F3600 X9.013 Y5.38
G1 F1800 X-6.111 Y-9.744 E59.51992
G0 F3600 X-5.592 Y-9.744
G1 F1800 X9.532 Y5.38 E60.23952
G0 F3600 X10.051 Y5.38
G1 F1800 X-5.073 Y-9.744 E60.95912
G0 F3600 X-4.554 Y-9.744
G1 F1800 X10.57 Y5.38 E61.67872
G0 F3600 X11.089 Y5.38
G1 F1800 X-4.035 Y-9.744 E62.39832
G0 F3600 X-3.516 Y-9.744
G1 F1800 X11.608 Y5.38 E63.11792
G0 F3600 X12.127 Y5.38
G1 F1800 X-2.997 Y-9.744 E63.83751
G0 F3600 X-2.478 Y-9.744
G1 F1800 X12.646 Y5.38 E64.55711
G0 F3600 X13.165 Y5.38
G1 F1800 X-1.959 Y-9.744 E65.27671
G0 F3600 X-1.44 Y-9.744
G1 F1800 X13.684 Y5.38 E65.99631
G0 F3600 X14.203 Y5.38
G1 F1800 X-.921 Y-9.744 E66.71591
G0 F3600 X-.402 Y-9.744
G1 F1800 X14.722 Y5.38 E67.43551
G0 F3600 X15.241 Y5.38
G1 F1800 X0.116 Y-9.744 E68.15513
G0 F3600 X0.635 Y-9.744
G1 F1800 X15.76 Y5.38 E68.87475
G0 F3600 X16.279 Y5.38
G1 F1800 X1.154 Y-9.744 E69.59438
G0 F3600 X1.673 Y-9.744
G1 F1800 X16.798 Y5.38 E70.314
G0 F3600 X17.317 Y5.38
G1 F1800 X2.192 Y-9.744 E71.03362
G0 F3600 X2.711 Y-9.744
G1 F1800 X17.836 Y5.38 E71.75324
G0 F3600 X18.355 Y5.38
G1 F1800 X3.23 Y-9.744 E72.47287
G0 F3600 X3.749 Y-9.744
G1 F1800 X18.874 Y5.38 E73.19249
G0 F3600 X19.393 Y5.38
G1 F1800 X4.268 Y-9.744 E73.91211
G0 F3600 X4.787 Y-9.744
G1 F1800 X19.912 Y5.38 E74.63173
G0 F3600 X20.431 Y5.38
G1 F1800 X5.306 Y-9.744 E75.35136
G0 F3600 X5.825 Y-9.744
G1 F1800 X20.95 Y5.38 E76.07098
G0 F3600 X21.469 Y5.38
G1 F1800 X6.344 Y-9.744 E76.7906
G0 F3600 X6.863 Y-9.744
G1 F1800 X21.988 Y5.38 E77.51022
G0 F3600 X22.507 Y5.38
G1 F1800 X7.382 Y-9.744 E78.22984
G0 F3600 X7.901 Y-9.744
G1 F1800 X23.026 Y5.38 E78.94947
G0 F3600 X23.545 Y5.38
G1 F1800 X8.42 Y-9.744 E79.66909
G0 F3600 X8.939 Y-9.744
G1 F1800 X24.064 Y5.38 E80.38871
G0 F3600 X24.583 Y5.38
G1 F1800 X9.458 Y-9.744 E81.10833
G0 F3600 X9.977 Y-9.744
G1 F1800 X25.102 Y5.38 E81.82796
G0 F3600 X25.622 Y5.38
G1 F1800 X10.497 Y-9.744 E82.54758
G0 F3600 X11.016 Y-9.744
G1 F1800 X26.141 Y5.38 E83.2672
G0 F3600 X26.66 Y5.38
G1 F1800 X11.535 Y-9.744 E83.98682
G0 F3600 X12.054 Y-9.744
G1 F1800 X27.06 Y5.261 E84.70078
G0 F3600 X27.06 Y4.742
G1 F1800 X12.573 Y-9.744 E85.39005
G0 F3600 X13.092 Y-9.744
G1 F1800 X27.06 Y4.223 E86.05462
G0 F3600 X27.06 Y3.704
G1 F1800 X13.611 Y-9.744 E86.6945
G0 F3600 X14.13 Y-9.744
G1 F1800 X27.06 Y3.185 E87.30969
G0 F3600 X27.06 Y2.666
G1 F1800 X14.649 Y-9.744 E87.90018
G0 F3600 X15.168 Y-9.744
G1 F1800 X27.06 Y2.147 E88.46597
G0 F3600 X27.06 Y1.628
G1 F1800 X15.687 Y-9.744 E89.00708
G0 F3600 X16.206 Y-9.744
G1 F1800 X27.06 Y1.109 E89.52349
G0 F3600 X27.06 Y0.59
G1 F1800 X16.725 Y-9.744 E90.0152
G0 F3600 X17.244 Y-9.744
G1 F1800 X27.06 Y0.071 E90.48222
G0 F3600 X27.06 Y-.447
G1 F1800 X17.763 Y-9.744 E90.92457
G0 F3600 X18.282 Y-9.744
G1 F1800 X27.06 Y-.966 E91.34223
G0 F3600 X27.06 Y-1.485
G1 F1800 X18.801 Y-9.744 E91.73519
G0 F3600 X19.32 Y-9.744
G1 F1800 X27.06 Y-2.004 E92.10346
G0 F3600 X27.06 Y-2.523
G1 F1800 X19.839 Y-9.744 E92.44703
G0 F3600 X20.358 Y-9.744
G1 F1800 X27.06 Y-3.042 E92.76591
G0 F3600 X27.06 Y-3.561
G1 F1800 X20.877 Y-9.744 E93.0601
G0 F3600 X21.396 Y-9.744
G1 F1800 X27.06 Y-4.08 E93.32959
G0 F3600 X27.06 Y-4.599
G1 F1800 X21.915 Y-9.744 E93.57439
G0 F3600 X22.434 Y-9.744
G1 F1800 X27.06 Y-5.118 E93.7945
M104 S190
G0 F3600 X27.06 Y-5.637
G1 F1800 X22.953 Y-9.744 E93.98991
G0 F3600 X23.472 Y-9.744
G1 F1800 X27.06 Y-6.156 E94.16062
G0 F3600 X27.06 Y-6.675
G1 F1800 X23.991 Y-9.744 E94.30665
G0 F3600 X24.51 Y-9.744
G1 F1800 X27.06 Y-7.194 E94.42798
G0 F3600 X27.06 Y-7.713
G1 F1800 X25.029 Y-9.744 E94.52461
G0 F3600 X25.548 Y-9.744
G1 F1800 X27.06 Y-8.232 E94.59655
G0 F3600 X27.06 Y-8.751
G1 F1800 X26.067 Y-9.744 E94.6438
G0 F3600 X26.586 Y-9.744
G1 F1800 X27.06 Y-9.27 E94.66635
G1 F3000 E89.66635
;MESH:NONMESH
G0 F3600 X29.163 Y-9.27
G0 X29.151 Y7.471
G0 X-24.277 Y7.483
G0 X-24.277 Y5.593
;TIME_ELAPSED:101.971144
;LAYER:1
M140 S48
M106 S255
;MESH:Holo Stand.stl
G0 F5400 X-24.277 Y5.593 Z0.42
;TYPE:WALL-INNER
G1 F3000 E94.66635
G1 F2700 X-24.277 Y-9.957 E95.14152
G1 X27.273 Y-9.957 E96.71678
G1 X27.273 Y5.593 E97.19195
G1 X-23.409 Y5.593 E98.74068
G0 F2430 X-24.277 Y5.593
G0 F5400 X-24.627 Y5.943
G1 F3000 E98.7672
G1 F2700 X-24.627 Y-10.307 E99.26376
G1 X27.623 Y-10.307 E100.86041
G1 X27.623 Y5.943 E101.35697
G1 X-23.759 Y5.943 E102.92709
G0 F2430 X-24.627 Y5.943
G0 F5400 X-24.977 Y6.293
G1 F3000 E102.95361
G1 F2700 X-24.977 Y-10.657 E103.47157
G1 X27.973 Y-10.657 E105.0896
G1 X27.973 Y6.293 E105.60755
G1 X-24.109 Y6.293 E107.19906
G0 F2430 X-24.977 Y6.293
G0 F5400 X-25.302 Y6.618
;TYPE:WALL-OUTER
G1 F3000 E107.22559
G1 F1800 X-25.302 Y-10.982 E107.7634
G1 X28.298 Y-10.982 E109.4013
G1 X28.298 Y6.618 E109.93911
G1 X-24.434 Y6.618 E111.55049
G0 F1620 X-25.302 Y6.618
G0 F5400 X-25.302 Y6.418
G0 X-24.917 Y6.233
G0 X-23.937 Y5.253
;TYPE:SKIN
G1 F3000 E111.57701
G1 F1800 X-23.937 Y-9.617 E112.0314
G1 X26.933 Y-9.617 E113.58588
G1 X26.933 Y5.253 E114.04027
G1 X-23.069 Y5.253 E115.56822
G0 F1620 X-23.937 Y5.253
G1 F3000 E110.56822
G0 F5400 X-26.167 Y5.253
G0 X-26.155 Y-11.835
G0 X-23.779 Y-11.847
G0 X-23.779 Y-9.384
G1 F3000 E115.59474
G1 F1800 X-23.702 Y-9.46 E115.59805
G0 F5400 X-23.207 Y-9.46
G1 F1800 X-23.779 Y-8.889 E115.62275
G0 F5400 X-23.779 Y-8.394
G1 F1800 X-22.712 Y-9.46 E115.66883
G0 F5400 X-22.218 Y-9.46
G1 F1800 X-23.779 Y-7.899 E115.73629
G0 F5400 X-23.779 Y-7.404
G1 F1800 X-21.723 Y-9.46 E115.82514
G0 F5400 X-21.228 Y-9.46
G1 F1800 X-23.779 Y-6.909 E115.93539
G0 F5400 X-23.779 Y-6.414
G1 F1800 X-20.733 Y-9.46 E116.06702
G0 F5400 X-20.238 Y-9.46
G1 F1800 X-23.779 Y-5.919 E116.22004
G0 F5400 X-23.779 Y-5.424
G1 F1800 X-19.743 Y-9.46 E116.39446
G0 F5400 X-19.248 Y-9.46
G1 F1800 X-23.779 Y-4.929 E116.59027
G0 F5400 X-23.779 Y-4.434
G1 F1800 X-18.753 Y-9.46 E116.80747
G0 F5400 X-18.258 Y-9.46
G1 F1800 X-23.779 Y-3.939 E117.04606
G0 F5400 X-23.779 Y-3.444
G1 F1800 X-17.763 Y-9.46 E117.30604
G0 F5400 X-17.268 Y-9.46
G1 F1800 X-23.779 Y-2.949 E117.58742
G0 F5400 X-23.779 Y-2.454
G1 F1800 X-16.773 Y-9.46 E117.89018
G0 F5400 X-16.278 Y-9.46
G1 F1800 X-23.779 Y-1.959 E118.21434
G0 F5400 X-23.779 Y-1.464
G1 F1800 X-15.783 Y-9.46 E118.55989
G0 F5400 X-15.288 Y-9.46
G1 F1800 X-23.779 Y-.969 E118.92683
G0 F5400 X-23.779 Y-.474
G1 F1800 X-14.793 Y-9.46 E119.31516
G0 F5400 X-14.298 Y-9.46
G1 F1800 X-23.779 Y0.02 E119.72486
G0 F5400 X-23.779 Y0.515
G1 F1800 X-13.803 Y-9.46 E120.15595
G0 F5400 X-13.308 Y-9.46
G1 F1800 X-23.779 Y1.01 E120.60844
G0 F5400 X-23.779 Y1.505
G1 F1800 X-12.813 Y-9.46 E121.08231
G0 F5400 X-12.318 Y-9.46
G1 F1800 X-23.779 Y2 E121.57758
G0 F5400 X-23.779 Y2.495
G1 F1800 X-11.823 Y-9.46 E122.09424
G0 F5400 X-11.328 Y-9.46
G1 F1800 X-23.779 Y2.99 E122.63229
G0 F5400 X-23.779 Y3.485
G1 F1800 X-10.833 Y-9.46 E123.19173
G0 F5400 X-10.338 Y-9.46
G1 F1800 X-23.779 Y3.98 E123.77257
G0 F5400 X-23.779 Y4.475
G1 F1800 X-9.843 Y-9.46 E124.37479
G0 F5400 X-9.348 Y-9.46
G1 F1800 X-23.779 Y4.97 E124.99841
G0 F5400 X-23.41 Y5.096
G1 F1800 X-8.853 Y-9.46 E125.62747
G0 F5400 X-8.358 Y-9.46
G1 F1800 X-22.915 Y5.096 E126.25653
G0 F5400 X-22.42 Y5.096
G1 F1800 X-7.863 Y-9.46 E126.88559
G0 F5400 X-7.368 Y-9.46
G1 F1800 X-21.925 Y5.096 E127.51466
G0 F5400 X-21.43 Y5.096
G1 F1800 X-6.873 Y-9.46 E128.14372
G0 F5400 X-6.378 Y-9.46
G1 F1800 X-20.935 Y5.096 E128.77278
G0 F5400 X-20.44 Y5.096
G1 F1800 X-5.883 Y-9.46 E129.40184
G0 F5400 X-5.388 Y-9.46
G1 F1800 X-19.945 Y5.096 E130.0309
G0 F5400 X-19.45 Y5.096
G1 F1800 X-4.893 Y-9.46 E130.65997
G0 F5400 X-4.398 Y-9.46
G1 F1800 X-18.955 Y5.096 E131.28903
G0 F5400 X-18.46 Y5.096
G1 F1800 X-3.903 Y-9.46 E131.91809
G0 F5400 X-3.408 Y-9.46
G1 F1800 X-17.965 Y5.096 E132.54715
G0 F5400 X-17.47 Y5.096
G1 F1800 X-2.913 Y-9.46 E133.17621
G0 F5400 X-2.419 Y-9.46
G1 F1800 X-16.975 Y5.096 E133.80525
G0 F5400 X-16.48 Y5.096
G1 F1800 X-1.924 Y-9.46 E134.43429
G0 F5400 X-1.429 Y-9.46
G1 F1800 X-15.985 Y5.096 E135.06333
G0 F5400 X-15.49 Y5.096
G1 F1800 X-.934 Y-9.46 E135.69237
G0 F5400 X-.439 Y-9.46
G1 F1800 X-14.995 Y5.096 E136.32141
G0 F5400 X-14.5 Y5.096
G1 F1800 X0.055 Y-9.46 E136.95043
G0 F5400 X0.55 Y-9.46
G1 F1800 X-14.005 Y5.096 E137.57945
G0 F5400 X-13.51 Y5.096
G1 F1800 X1.045 Y-9.46 E138.20847
G0 F5400 X1.54 Y-9.46
G1 F1800 X-13.015 Y5.096 E138.83749
G0 F5400 X-12.52 Y5.096
G1 F1800 X2.035 Y-9.46 E139.46651
G0 F5400 X2.53 Y-9.46
G1 F1800 X-12.025 Y5.096 E140.09553
G0 F5400 X-11.53 Y5.096
G1 F1800 X3.025 Y-9.46 E140.72454
G0 F5400 X3.52 Y-9.46
